!!!COM:	Bach, Johann Sebastian
!!!CDT:	1685/02/21/-1750/07/28/
!!!OTL@@DE:	Wir Christenleut
!!!SCT:	BWV 110/7
!!!PC#:	55
!!!AGN:	chorale
**harm	**kern	**kern	**kern	**kern
*	*ICvox	*ICvox	*ICvox	*ICvox
*	*Ibass	*Itenor	*Ialto	*Isoprn
*	*I"Bass	*I"Tenor	*I"Alto	*I"Soprano
*>[A,A,B]	*>[A,A,B]	*>[A,A,B]	*>[A,A,B]	*>[A,A,B]
*>norep[A,B]	*>norep[A,B]	*>norep[A,B]	*>norep[A,B]	*>norep[A,B]
*>A	*>A	*>A	*>A	*>A
*	*	*oclefC4	*oclefC3	*oclefC1
*	*clefF4	*clefGv2	*clefG2	*clefG2
*k[f#c#]	*k[f#c#]	*k[f#c#]	*k[f#c#]	*k[f#c#]
*b:	*b:	*b:	*b:	*b:
*M4/4	*M4/4	*M4/4	*M4/4	*M4/4
*met(c)	*met(c)	*met(c)	*met(c)	*met(c)
*MM100	*MM100	*MM100	*MM100	*MM100
i	4BB	4d	4f#	4b
=1	=1	=1	=1	=1
i	4B	4f#	4b	4dd
V7	4F#	4e	4a#	4cc#
i;	4BB;	4d;	4f#;	4b;
=:|!	=:|!	=:|!	=:|!	=:|!
*>B	*>B	*>B	*>B	*>B
D:I	4D	4A	4f#	4ff#
=2	=2	=2	=2	=2
V	4A	4c#	4a	4ee
vi	4B	4B	4f#	4dd
b:V;	4F#;	4A#;	4f#;	4cc#;
V	4F#	4A#	4f#	4cc#
=3	=3	=3	=3	=3
i	4B	4B	4f#	4dd
i	4B	4d	4f#	4dd
iv65	4G	4d	4b	4ee
D:V	8AL	8c#L	8aL	8eeL
V2	8GJ	8c#J	8aJ	8eeJ
=4	=4	=4	=4	=4
I6	4F#	4d	4a	4ff#
I	4D	4d	4a	4ff#
b:viio	4AA#	4c#	4cc#	4ee
i	4BB	4B	4f#	4dd
=5	=5	=5	=5	=5
V7	2FF#	2A#	2e	2cc#
i;	4BB;	4F#;	4d;	4b;
i	4BB	4d	4b	4ff#
=6	=6	=6	=6	=6
viio6	4C#	4e	4a#	4ee
i6	4D	4f#	4b	4dd
V;	4F#;	4f#;	4a#;	4cc#;
i6	4D	4f#	4b	4ff#
=7	=7	=7	=7	=7
A:V	4E	4B	4g#	4ee
IV6	8F#L	8f#L	8aL	8ddL
V6	8G#J	8eJ	8bJ	8ddJ
I;	4A;	4e;	4a;	4cc#;
D:V	8AL	8eL	8aL	8cc#L
V2	8GJ	8eJ	8aJ	8cc#J
=8	=8	=8	=8	=8
I6	4F#	4f#	4a	4dd
vi	4B	4d	4f#	4dd
b:IV6	4G#	4B	4b	4ee
ii	4c#	4e	4g#	4ee
=9	=9	=9	=9	=9
V65	4A#	4e	4cc#	4ff#
i6	4d	4d	4b	4ff#
IV6	4G#	4B	4b	4ee
i	4B	8d	4b	4dd
=10	=10	=10	=10	=10
V(54)	4F#	4F#	4b	4cc#
V7	4F#	4e	4a#	4cc#
I;	4BB;	4d#;	4f#;	4b;
==	==	==	==	==
*-	*-	*-	*-	*-
!!!YOR1: 371 vierstimmige Choralges&auml;nge von Johann Sebastian Bach, 
!!!YOR2: 4th ed. by Alfred D&ouml;rffel (Leipzig: Breitkopf und H&auml;rtel, 
!!!YOR2: c.1875). 178 pp. Plate "V.A.10".  reprint: J.S. Bach, 371 Four-Part 
!!!YOR4: Chorales (New York: Associated Music Publishers, Inc., c.1940).
!!!SMS: B&H, 4th ed, Alfred D&ouml;rffel, c.1875, plate V.A.10
!!!EED:  Craig Stuart Sapp
!!!EEV:  2009/05/22
